X: 11664
T: DOWN AMONG THE BANKS OF ROSES
Q: "Moderate."
%R: air, strathspey
B: W. Hamilton "Universal Tune-Book" Vol. 1 Glasgow 1844 p.166 #4
S: http://imslp.org/wiki/Hamilton's_Universal_Tune-Book_(Various)
Z: 2016 John Chambers <jc:trillian.mit.edu>
M: C	% Actually, there's no time signature
L: 1/8
K: A
% - - - - - - - - - - - - - - - - - - - - - - - - -
E |\
(A>B)c>d e2ee | (B>c)d>e f3e |\
a2ga f2e>c | A2B>B c3e |\
a2ga f2(e>a) | (ec)BA B2(A>B) |\
e3e fefc | B4 A2z2 |]
% - - - - - - - - - - - - - - - - - - - - - - - - -

%%sep 1 1 500
%%sep 1 1 500

